X: 1123
T: Hüzzam Peşrev
C: Gazi Giray Han
O: Turkey
F: http://compmusic.upf.edu/node/140
N: huzzam--pesrev--fahte----gazi_giray_han
N: makam= huzzam
N: form= pesrev
N: usul= fahte = 20/4
M: 20/4
L: 1/16
K: C _1/4B _3/4e ^3/4f 
Q: 1/4=87
%%MIDI tuningsystem comma53
d3c B2c2 B4 c4  | d2_7/8e^f edc2 efed e2fg  | \
w:   |   | 
^f_7/8ed4B2 cdcB c2d2  | 
w:   | 
c4 d8 (3=e2d2e2  | d=e=fg efde cdBc ABG2  | \
w:   |   | 
c4 d4 c4 d2_7/8e2  | 
w:   | 
d3c B4 _7/8e3d e2^fg  | ^f_7/8ed4B2 cdcB c2de  | \
w:   |   | 
d2cB c2B2 ^A2B2 cdcB  | 
w:   | 
B6ag g^ff^e f4  | B4 ^f2^e2 f4 g2a2  | \
w:   |   | 
^f2ga g2f2 _7/8e2fg f2e2  | 
w:   | 
d6B2 cdcB c2d2  | c4 d8 ^f4  | d2_7/8e^f e2d2 dedc B4  | 
w:   |   |   | 
z4 BcB^A B4 c4  | d2_7/8e^f edc2 efed e2fg  | \
w:   |   | 
^f_7/8ed4B2 cdcB c2d2  | 
w:   | 
d2cd c2B2 ^A2B2 cdcB  | B6ag g^ff^e f4  | \
w:   |   | 
B4 ^f2^e2 f4 g2a2  | 
w:   | 
^f2ga g2f2 _7/8e2fg f2e2  | d2_7/8e2 d2c2 dede ^f2g2  | \
w:   |   | 
_7/8e2g2 ^f8 a4  | 
w:   | 
^f2ga g2f2 agf_7/8e d4  | z4 d_7/8edc d4 e4  | \
w:   |   | 
^f4 _7/8e2d2 g4 f4  | 
w:   | 
g3^f g2a2 gagf _7/8e2g2  | ^f3_7/8e d8 a4  | \
w:   |   | 
g2a_b a2g2 ag^f_7/8e d4  | 
w:   | 
GABc d2^c2 d_7/8edc d2e2  | d3_7/8e ^f2g2 agfg a2_bc'  | 
w:   |   | 
_bag4ab ag^fg f2g2  | a3b c'2d'2 b2c'2 a2_b2  | \
w:   |   | 
g2a2 ^f2g2 _7/8e2f2 d4  | 
w:   | 
d4 d_7/8edc d4 e2^fg  | ^f_7/8ed4B2 a2g2 f2e2  | \
w:   |   | 
^f_7/8ed4B2 cdcB c2d2  | 
w:   | 
c4 d8 (3=e2d2e2  | d6a_b agg^f g4  | \
w:   |   | 
g4 ^f4 ^e4 f4  | ^f4 ^e2g2 f4 z4  | 
w:   |   | 
a2g2 ^f2_7/8e2 d4 f4  | _7/8e4 d2^f2 e4 z4  | \
w:   |   | 
^f2ga g2f2 f2_7/8e2 d4  | z4 ^f_7/8edc d4 e4  | 
w:   |   | 
^f2ga f2_7/8e2 agfe d4  | d2^f2 _7/8e2d2 ^c2d2 e2fg  | \
w:   |   | 
ag^f_7/8e d8 (3=e2d2e2  | 
w:   | 
d=e=fg efde cdBc ABG2  | c2d4_7/8e2 dedc B4  | 
w:   |   | 
d2_7/8e4d2 g^fed c4  | ^f2ga g2f2 agf_7/8e d4  | \
w:   |   | 
z4 d3_7/8e ^f2g2 a2_b2  | 
w:   | 
a2ga g2^f2 agf_7/8e d4  | d4 c2B2 ^f4 _7/8e2d2  | \
w:   |   | 
d=edc BAG2 _7/8e3d e2^fg  | 
w:   | 
^f_7/8ed4B2 cdcB c2d_1/4e  | d2cd c2B2 ^A2B2 cdcB  | 
w:   |   | 
B8 z4 z4  | |


